X:1
T:Title
%%score ( 1 2 ) { 3 | 4 }
L:1/8
Q:1/4=108
M:4/4
K:F
V:1 treble nm="Grand Piano, Soprano"
V:2 treble 
V:3 bass nm="Choir Pad, Bass"
V:4 bass 
V:1
 [A,C]2 [CF]2 [CF]2 [DF][EG] | [FA][GB] [Ac]4 [FA]2 | [Fc]2 [Fd]2 [Fc]2 [FA]2 | F2 [EG]6 | %4
w: By~Marcus~Bearden~Dewitt~(1835–1901) * * * *||||
 C2 [CF]2 [A,F]2 [DF][EG] | F-[FB] [Fc]4 [Fd]2 | [Fd]2 [Fc]2 FG [FA]2 | [EG]2 F6 | %8
w: ||||
 [Fc]2 [Af]2 [Ff]2 [Fe]2 | [Fd]2 [Fc]4 [Fd]2 | [Ff]2 c-[Cc] [CA]2 [CG]2 | [CF]2 [CG]6 | %12
w: ||||
 AG [CF]2 [A,F]2 [DF][EG] | AB [Fc]4 [Fd]2 | [Fd]2 [Fc]2 FG [FA]2 | [EG]2 F6- | F2 z2 z4 |] %17
w: |||||
V:2
 x8 | x8 | x8 | x8 | x8 | .A2 z2 z4 | x8 | x8 | x8 | x8 | z2 .F2 z4 | x8 | C2 z2 z4 | F2 z2 z4 | %14
 x8 | x8 | x8 |] %17
V:3
 F,2 A,2 A,2 B,2 | C[K:treble]D C4 C2 | A,2 B,2 A,2 C2 | C2 C6 | E,2 F,2 F,2 F,2 | F,2 F,4 F,2 | %6
 B,2 A,2[K:treble] CC C2 | B,2 A,6 | A,2 C2 A,2 C2 | B,2 A,4 B,2 | D2 A,2 F,2 A,2 | A,2 E,6 | %12
 E,2 F,2 F,2 F,2 | A,2 F,4 F,2 | B,2 A,2[K:treble] CD C2 | B,2 A,6- | A,2 z2 z4 |] %17
V:4
 z2 F,2 F,2 F,2 | F,2 F,4 F,2 | F,2 B,,2 F,2 F,2 | A,,2 C,6 | C,B,, A,,2 D,,2 z2 | D,2 A,,4 B,,2 | %6
 B,,2 F,,2 A,,B,, C,2 | C,2 F,,6 | F,2 F,2 F,2 F,2 | F,2 F,4 B,,2 | B,,2 F,2 z2 F,2 | D,2 C,6 | %12
 C,B,, A,,2 F,,2 z2 | F,2 A,,4 B,,2 | B,,2 F,,2 A,,B,, C,2 | C,2 F,,6- | F,,2 z2 z4 |] %17

